X:1
T:Title
%%score { ( 1 4 ) | ( 2 3 ) }
L:1/8
M:4/4
K:Ab
V:1 treble nm="Grand Piano"
V:4 treble 
V:2 bass 
V:3 bass 
V:1
 z4 z2[Q:1/4=106] [CE]2 | [CA]2 [CA]2 [Ec]2 [EA]2 | [FA]2 [DF]2 [CE]2 [CA]2 | G2 GG GA B2 | %4
[M:3/4] [CA]6 |[M:1/4] [CE]2 |[M:4/4] [CA]2 [CA]2 [Ec]2 [EA]2 | [FA]2 [DF]2 [CE]2 [CA]2 | %8
 [Ec]2 [DB][CA] [Ec]2 [DB]2 |[M:3/4] [CA]6 |[M:4/4] [Ec] [Ec]3 [Ee]4 | [CA] [CA]3 [Ec]2 [CA]2 | %12
 [A,=DA]2 [A,DA][A,DA] .[A,DA]2 [Dc]2 |[M:3/4] B6 |[M:1/4] E2 |[M:4/4] [CA]2 [CA]2 [Ec]2 [EA]2 | %16
 [FA]2 [DF]2 [CE]2 [CA]2 | [Ec]2 [DB][CA] [Ec]2 [DB]2 |[M:3/4] [CA]6 |] %19
V:2
 z4 z2 [A,,A,]2 | [A,,E,]2 [A,,E,]2 [A,,A,]2 [C,A,]2 | [D,A,]2 [D,A,]2 [A,,A,]2 [A,,A,]2 | %3
 z4 .B,2 z2 |[M:3/4] [A,,A,]6 |[M:1/4] [A,,A,]2 |[M:4/4] [A,,E,]2 [A,,E,]2 [A,,A,]2 [C,A,]2 | %7
 [D,A,]2 [D,A,]2 [A,,A,]2 [A,,A,]2 | [A,,A,]2 [A,,A,][A,,A,] [E,A,]2 [E,G,]2 |[M:3/4] [A,,A,]6 | %10
[M:4/4] [A,,A,] [A,,A,]3 [A,C]4 | [A,,A,] [A,,A,]3 [A,,A,]2 [A,,A,]2 | %12
 B,,2 B,,B,, z[K:treble] B[K:bass] [B,,A,]2 |[M:3/4] [E,G,E]2 [F,A,]2 [G,B,]2 |[M:1/4] [E,G,D]2 | %15
[M:4/4] [A,,E,]2 [A,,E,]2 [A,,A,]2 [C,A,]2 | [D,A,]2 [D,A,]2 [A,,A,]2 [A,,A,]2 | %17
 [A,,A,]2 [A,,A,][A,,A,] [E,A,]2 [E,G,]2 |[M:3/4] [A,,A,]6 |] %19
V:3
 x8 | x8 | x8 | [E,B,D]2 [E,B,D][E,B,D] [E,D]-[E,A,D] [E,G,D]2 |[M:3/4] x6 |[M:1/4] x2 | %6
[M:4/4] x8 | x8 | x8 |[M:3/4] x6 |[M:4/4] x8 | x8 | z4 B,,2[K:treble][K:bass] z2 |[M:3/4] x6 | %14
[M:1/4] x2 |[M:4/4] x8 | x8 | x8 |[M:3/4] x6 |] %19
V:4
 x8 | x8 | x8 | x8 |[M:3/4] x6 |[M:1/4] x2 |[M:4/4] x8 | x8 | x8 |[M:3/4] x6 |[M:4/4] x8 | x8 | %12
 x8 |[M:3/4] z2 =D2 _D2 |[M:1/4] x2 |[M:4/4] x8 | x8 | x8 |[M:3/4] x6 |] %19

